X:1055
T:First House in Connaught
M:C
L:1/8
K:G Major
|:GF|DG~G2 AGG2|BGdG BG G2|DF~F2 AFF2|ABcA BGAF|!
|DG~G2 AGG2|BGdG BG G2|defg agfd|cAFA G2:|
|: Bd|~g2ga gfdf |g2bg ageg|~f2dg f2dg |fgaf bgaf|!  
|~g2ga gfdf|g2bg agfe|defg agfd|cAFA G2:|
